gama.ui.shared/icons_svg/light/editor/lexical.sort.svg

<svg height="24.75" viewBox="-670.649 -3263.623 24.75 24.75" width="24.75" xmlns="http://www.w3.org/2000/svg"><g fill="none"><circle cx="-658.274" cy="-3251.248" fill="#666" r="8"/><circle cx="-658.274" cy="-3251.248" r="8"/><circle cx="-658.274" cy="-3251.248" fill="#fff" r="8"/><circle cx="-658.274" cy="-3251.248" r="8"/><path d="m-658.2741-3243.1743c-4.4183 0-8-3.5817-8-8 0-4.4182 3.5817-8 8-8s8 3.5818 8 8c0 4.4183-3.5817 8-8 8zm0-.8c3.97645 0 7.2-3.2237 7.2-7.2 0-3.9764-3.22355-7.2-7.2-7.2s-7.2 3.2236-7.2 7.2c0 3.9763 3.22355 7.2 7.2 7.2zm-4.4-8.8c-.2209 0-.4-.179-.4-.4 0-.2207.1791-.4.4-.4h8.8c.2209 0 .4.1793.4.4 0 .221-.1791.4-.4.4zm1.6 2.4c-.2209 0-.4-.179-.4-.4 0-.2207.1791-.4.4-.4h5.6c.2209 0 .4.1793.4.4 0 .221-.1791.4-.4.4zm1.6 2.4c-.2209 0-.4-.179-.4-.4 0-.2207.1791-.4.4-.4h2.4c.2209 0 .4.1793.4.4 0 .221-.1791.4-.4.4z" fill="#5b77a1"/></g></svg>

<?xml version="1.0" encoding="UTF-8" standalone="no"?>
<!DOCTYPE svg PUBLIC "-//W3C//DTD SVG 1.1//EN" "http://www.w3.org/Graphics/SVG/1.1/DTD/svg11.dtd">
<svg xmlns="http://www.w3.org/2000/svg" xmlns:dc="http://purl.org/dc/elements/1.1/" version="1.1" xmlns:xl="http://www.w3.org/1999/xlink" viewBox="-670.6491 -3263.623 24.75 24.75" width="24.75" height="24.75">
  <defs/>
  <g id="SOURCES" stroke-dasharray="none" stroke-opacity="1" stroke="none" fill="none" fill-opacity="1">
    <title>SOURCES</title>
    <g id="SOURCES_Light">
      <title>Light</title>
      <g id="Graphic_12425">
        <circle cx="-658.2741" cy="-3251.248" r="8.00000702080163" fill="#666"/>
        <circle cx="-658.2741" cy="-3251.248" r="8.00000702080163" stroke="black" stroke-linecap="round" stroke-linejoin="round" stroke-width="0"/>
      </g>
      <g id="Graphic_12424"/>
      <g id="Graphic_12423">
        <circle cx="-658.2741" cy="-3251.248" r="8.00000702080163" fill="white"/>
        <circle cx="-658.2741" cy="-3251.248" r="8.00000702080163" stroke="black" stroke-linecap="round" stroke-linejoin="round" stroke-width="0"/>
      </g>
      <g id="Graphic_12421">
        <path d="M -658.2741 -3243.1743 C -662.6924 -3243.1743 -666.2741 -3246.756 -666.2741 -3251.1743 C -666.2741 -3255.5925 -662.6924 -3259.1743 -658.2741 -3259.1743 C -653.8558 -3259.1743 -650.2741 -3255.5925 -650.2741 -3251.1743 C -650.2741 -3246.756 -653.8558 -3243.1743 -658.2741 -3243.1743 Z M -658.2741 -3243.9743 C -654.29765 -3243.9743 -651.0741 -3247.198 -651.0741 -3251.1743 C -651.0741 -3255.1507 -654.29765 -3258.3743 -658.2741 -3258.3743 C -662.25055 -3258.3743 -665.4741 -3255.1507 -665.4741 -3251.1743 C -665.4741 -3247.198 -662.25055 -3243.9743 -658.2741 -3243.9743 Z M -662.6741 -3252.7743 C -662.895 -3252.7743 -663.0741 -3252.9533 -663.0741 -3253.1743 C -663.0741 -3253.395 -662.895 -3253.5743 -662.6741 -3253.5743 L -653.8741 -3253.5743 C -653.6532 -3253.5743 -653.4741 -3253.395 -653.4741 -3253.1743 C -653.4741 -3252.9533 -653.6532 -3252.7743 -653.8741 -3252.7743 Z M -661.0741 -3250.3743 C -661.295 -3250.3743 -661.4741 -3250.5533 -661.4741 -3250.7743 C -661.4741 -3250.995 -661.295 -3251.1743 -661.0741 -3251.1743 L -655.4741 -3251.1743 C -655.2532 -3251.1743 -655.0741 -3250.995 -655.0741 -3250.7743 C -655.0741 -3250.5533 -655.2532 -3250.3743 -655.4741 -3250.3743 Z M -659.4741 -3247.9743 C -659.695 -3247.9743 -659.8741 -3248.1533 -659.8741 -3248.3743 C -659.8741 -3248.595 -659.695 -3248.7743 -659.4741 -3248.7743 L -657.0741 -3248.7743 C -656.8532 -3248.7743 -656.6741 -3248.595 -656.6741 -3248.3743 C -656.6741 -3248.1533 -656.8532 -3247.9743 -657.0741 -3247.9743 Z" fill="#5b77a1"/>
      </g>
    </g>
  </g>
</svg>
